!!!OTL@@DE: Wenn ich ein V&ouml;glein w&auml;r'
!!!ONB: Volkslied
!!!ODT: 1800
!!!OMD: Sehr m&auml;ssig
!!!ONB: In J.G. von Herder's Volksliedern
!!!LDT: 1778
!!!OCL: Erk, Ludwig
!!!GCO: Deutscher Liederschatz, Band 1
**kern	**kern	**kern
*staff3	*staff2	*staff1
*Ipiano	*Ipiano	*Ivox
=1-	=1-	=1-
*clefF4	*clefG2	*clefG2
*k[f#]	*k[f#]	*k[f#]
*G:	*G:	*G:
*M3/8	*M3/8	*M3/8
*MM92	*MM92	*MM92
*^	*	*
(8GG/L	4.GG\	8B/ 8g/L	8g/
8D/	.	8B/ 8g/	8g/
8G/J)	.	8B/ 8g/J	8g/
=2	=2	=2	=2
(8GG/L	4.GG\	8.d/ 8.b/L	8.b/
8D/	.	.	.
.	.	16c/ 16a/k	16a/
8G/J)	.	8B/ 8g/J	8g/
=3	=3	=3	=3
(8GG/L	4.GG\	8g/ 8b/L	8b/
8D/	.	8g/ 8b/	8b\
8G/J)	.	8g/ 8b/J	8b\
=4	=4	=4	=4
(8GG/L	4.GG\	8.b\ 8.dd\L	8.dd\
8D/	.	.	.
.	.	16a\ 16cc\k	16cc\
8G/J)	.	8g\ 8b\J	8b\
*v	*v	*	*
=5	=5	=5
*	*^	*
8BB/L	8g/ 8dd/L	8d\	8dd\
8C/	8a/ 8cc/	4e\	8cc\
8C#/J	8g/ 8b/J	.	8b\
*	*v	*v	*
=6	=6	=6
8D/L	4f#/ 4a/	4a/
8DD/J	.	.
8r	8r	8r
=7	=7	=7
*^	*^	*
4c/	4.D\	4a/	8r	4a/
.	.	.	8d\L	.
16B/LL	.	16g/LL	8d\J	16g/
16A/JJ	.	16f#/JJ	.	16f#/
*v	*v	*	*	*
*	*v	*v	*
=8	=8	=8
8G\ 8B\L	8d/ 8g/L	8g/
8D\ 8A\	8d/ 8f#/ 8a/	8a/
8GG\ 8G\J	8d/ 8g/ 8b/J	8b\
=9	=9	=9
*^	*^	*
8r	4.DD\	4a/ 4cc/	8r	4cc\
8D/L	.	.	8d\L	.
8D/J	.	16g/ 16b/LL	8d\J	16b\
.	.	16f#/ 16a/JJ	.	16a/
*	*	*v	*v	*
=10	=10	=10	=10
4D/	8GG\L	8g/ 8b/L	8b\
.	8AA\	8g/ 8cc/	8cc\
8D/	8BB\J	8g/ 8dd/J	8dd\
*v	*v	*	*
=11	=11	=11
*	*^	*
8C/L	16b/ (16dd/LL	8e\	(16dd\LL
.	16a/ 16cc/JJ)	.	16cc\JJ)
*	*v	*v	*
8D/	8d/ 8g/ 8b/L	8b\
8D/J	8c/ 8f#/ 8a/J	8a/
=12	=12	=12
8G/L	4B/ 4g/	4g/
8GG/J	.	.
8r	8r	8r
==	==	==
*-	*-	*-
!!!ENC: Craig Stuart Sapp
!!!END: 2004/06/08/
!!!EFL: 118/651
